icons/snakemake.svg

<!--
  - The MIT License (MIT)
  -
  - Copyright (c) 2015-2024 Elior "Mallowigi" Boukhobza
  -
  - Permission is hereby granted, free of charge, to any person obtaining a copy
  - of this software and associated documentation files (the "Software"), to deal
  - in the Software without restriction, including without limitation the rights
  - to use, copy, modify, merge, publish, distribute, sublicense, and/or sell
  - copies of the Software, and to permit persons to whom the Software is
  - furnished to do so, subject to the following conditions:
  -
  - The above copyright notice and this permission notice shall be included in all
  - copies or substantial portions of the Software.
  -
  - THE SOFTWARE IS PROVIDED "AS IS", WITHOUT WARRANTY OF ANY KIND, EXPRESS OR
  - IMPLIED, INCLUDING BUT NOT LIMITED TO THE WARRANTIES OF MERCHANTABILITY,
  - FITNESS FOR A PARTICULAR PURPOSE AND NONINFRINGEMENT. IN NO EVENT SHALL THE
  - AUTHORS OR COPYRIGHT HOLDERS BE LIABLE FOR ANY CLAIM, DAMAGES OR OTHER
  - LIABILITY, WHETHER IN AN ACTION OF CONTRACT, TORT OR OTHERWISE, ARISING FROM,
  - OUT OF OR IN CONNECTION WITH THE SOFTWARE OR THE USE OR OTHER DEALINGS IN THE
  - SOFTWARE.
  -
  -->

<svg  width="16px" height="16px" version="1.1" xmlns="http://www.w3.org/2000/svg"
     x="0px" y="0px" viewBox="0 0 200 200" enable-background="new 0 0 200 200" xml:space="preserve">
    <path fill="#039475" data-iconColor="Snakemake" d="
M55.431194,25.277943
	C63.258709,24.071102 70.707153,22.329599 78.194458,22.142357
	C95.838989,21.701107 113.508766,21.694366 131.155899,22.080093
	C152.183670,22.539711 168.009293,31.898359 177.524979,51.042107
	C181.965271,59.975101 177.083847,67.986473 167.203873,67.992668
	C137.722397,68.011147 108.240585,67.918121 78.759613,68.040092
	C67.306305,68.087486 57.153404,71.406342 49.113281,80.280464
	C43.291325,86.706329 40.125191,93.928398 40.005665,102.537163
	C39.968849,105.188828 39.999947,107.841431 39.999947,110.511978
	C34.063843,110.093353 24.916693,94.851669 22.942122,84.129822
	C17.779705,56.098091 35.167931,32.509277 55.431194,25.277943
M136.551468,38.044464
	C136.479111,40.620308 135.550934,43.656166 136.608917,45.624420
	C137.434769,47.160835 140.946716,48.334164 142.862854,47.898762
	C144.765793,47.466366 147.032318,45.041241 147.526810,43.082836
	C147.961868,41.359825 146.622864,37.806828 145.257767,37.316669
	C142.867447,36.458382 139.856918,37.327381 136.551468,38.044464
z"/>
  <path d="
M149.291290,131.657883
	C142.439636,126.747696 134.848465,125.189316 127.080894,125.081879
	C108.754143,124.828392 90.421501,125.011406 72.091263,124.995354
	C61.739880,124.986282 52.806183,117.232391 50.993271,106.986511
	C47.813717,89.016937 61.239807,78.686295 74.971130,78.916328
	C94.462395,79.242867 113.974205,78.589218 133.456909,79.112122
	C154.186157,79.668472 172.269943,92.242622 179.134552,112.544426
	C184.901917,129.601196 183.158539,146.054703 172.868683,161.129684
	C170.942413,163.951706 168.018723,166.092926 164.714340,168.308868
	C165.037216,153.533173 162.555496,140.479263 149.291290,131.657883
z"/>
  <path d="
M55.000126,136.000000
	C80.499718,136.000046 105.499344,135.993439 130.498978,136.002975
	C142.711563,136.007645 152.207977,144.025406 153.854568,156.425613
	C155.188736,166.472855 148.877884,178.349319 137.177139,181.333878
	C135.759796,181.695419 134.273300,181.968887 132.818222,181.971710
	C111.985275,182.012177 91.137497,182.489197 70.323273,181.863464
	C48.762550,181.215302 34.012997,169.750046 26.041410,150.980637
	C22.862547,143.495880 28.320555,136.191376 36.500973,136.026108
	C42.498428,135.904907 48.500278,136.000839 55.000126,136.000000
z"/>
</svg>

<svg xmlns="http://www.w3.org/2000/svg" xml:space="preserve" viewBox="0 0 200 200"><path fill="#039475" d="M55.431 25.278c7.828-1.207 15.276-2.948 22.763-3.136 17.645-.44 35.315-.448 52.962-.062 21.028.46 36.853 9.818 46.369 28.962 4.44 8.933-.441 16.944-10.321 16.95-29.482.02-58.963-.074-88.444.048-11.454.047-21.607 3.366-29.647 12.24-5.822 6.426-8.988 13.648-9.107 22.257-.037 2.652-.006 5.304-.006 7.975-5.936-.419-15.083-15.66-17.058-26.382-5.162-28.032 12.226-51.62 32.49-58.852m81.12 12.766c-.073 2.576-1.001 5.612.057 7.58.826 1.537 4.338 2.71 6.254 2.275 1.903-.433 4.17-2.858 4.664-4.816.435-1.723-.904-5.276-2.27-5.766-2.39-.859-5.4.01-8.706.727" data-iconColor="Snakemake"/><path d="M149.291 131.658c-6.851-4.91-14.443-6.469-22.21-6.576-18.327-.254-36.66-.07-54.99-.087-10.351-.009-19.285-7.763-21.098-18.008-3.18-17.97 10.247-28.3 23.978-28.07 19.491.326 39.003-.328 58.486.195 20.73.556 38.813 13.13 45.678 33.432 5.767 17.057 4.024 33.51-6.266 48.586-1.927 2.822-4.85 4.963-8.155 7.179.323-14.776-2.159-27.83-15.423-36.651"/><path d="M55 136c25.5 0 50.5-.007 75.499.003 12.213.005 21.709 8.022 23.356 20.423 1.334 10.047-4.977 21.923-16.678 24.908-1.417.361-2.904.635-4.359.638-20.833.04-41.68.517-62.495-.109-21.56-.648-36.31-12.113-44.282-30.882-3.178-7.485 2.28-14.79 10.46-14.955 5.997-.121 12-.025 18.5-.026"/></svg>
